/* XPM */
static const char *pen_icon[] = {
/* columns rows colors chars-per-pixel */
"32 32 32 1 ",
"  c black",
". c #7F0000",
"X c #00007F",
"o c #A70000",
"O c #BF2400",
"+ c #FF0000",
"@ c #BF4800",
"# c #BF6D00",
"$ c #BF9100",
"% c #FF9100",
"& c #FFDA3F",
"* c #FFFF3F",
"= c #C9C963",
"- c #D1D167",
"; c #E4E470",
": c #EFEF76",
"> c #FFFF7C",
", c #0000BF",
"< c #0024BF",
"1 c #0000FF",
"2 c #0048FF",
"3 c #006DFF",
"4 c #0091FF",
"5 c #00B6FF",
"6 c #00DAFF",
"7 c #00FFFF",
"8 c #CECECE",
"9 c #D8D8D8",
"0 c #E0E0E0",
"q c #E3E3E3",
"w c #EAEAEA",
"e c #FFFFFF",
/* pixels */
"333    3455555555555556777777777",
"33 @#$$ 345555555555555677777777",
"3 @@@#$$ 34555555555555567777777",
" O@@@@#$$ 3455555555555556777777",
" oO@@@@#$  345555555555555677777",
" ooO@@@@ we 34555555555555567777",
" oooO@@ www  3455555555555556777",
"X oooO 00w &* 345555555555555677",
"3X oo 900  &&* 34555555555555567",
"33X  899 %. &&* 3455555555555556",
"333X 88  %%. &&* 345555555555555",
"3333X  +. %%. &&* 34555555555555",
"33333X ++. %%. &&* 3455555555555",
"333333X ++. %%. &&* 345555555555",
"2333333X ++. %%. &&* 34555555555",
"12333333X ++. %%. &&* 3455555555",
"112333333X ++. %%. &&* 345555555",
"1112333333X ++. %%. &&* 34555555",
"11112333333X ++. %%. &&* 3455555",
"111112333333X ++. %%. &&* 345555",
"1111112333333X ++. %%. &&* 34555",
"11111112333333X ++. %%. &   3455",
"111111112333333X ++. %%.  :> 345",
"1111111112333333X ++. %   :> 334",
"11111111112333333X ++.  ;;:> 333",
"111111111112333333X +   ;;;:> 33",
"1111111111112333333X  ==-;;:> 33",
"<1111111111112333333X ==-;;:> 33",
",<1111111111112333333X   -;:   3",
",,<1111111111112333333XXX      3",
",,,<111111111111233333333XXX    ",
",,,,<11111111111123333333333XX  "
};
